Papirus/16x16/apps/miktex-console.svg

<?xml version="1.0" encoding="UTF-8" standalone="no"?>
<svg
   id="_图层_1"
   version="1.1"
   viewBox="0 0 64 64" width="16" height="16"
   sodipodi:docname="miktex-console.svg"
   xml:space="preserve"
   inkscape:version="1.4 (e7c3feb100, 2024-10-09)"
   xmlns:inkscape="http://www.inkscape.org/namespaces/inkscape"
   xmlns:sodipodi="http://sodipodi.sourceforge.net/DTD/sodipodi-0.dtd"
   xmlns="http://www.w3.org/2000/svg"
   xmlns:svg="http://www.w3.org/2000/svg"><sodipodi:namedview
     id="namedview26"
     pagecolor="#505050"
     bordercolor="#eeeeee"
     borderopacity="1"
     inkscape:showpageshadow="0"
     inkscape:pageopacity="0"
     inkscape:pagecheckerboard="0"
     inkscape:deskcolor="#505050"
     inkscape:zoom="10.6875"
     inkscape:cx="32"
     inkscape:cy="29.005848"
     inkscape:window-width="1920"
     inkscape:window-height="939"
     inkscape:window-x="0"
     inkscape:window-y="34"
     inkscape:window-maximized="1"
     inkscape:current-layer="_图层_1" /><!-- Generator: Adobe Illustrator 29.0.1, SVG Export Plug-In . SVG Version: 2.1.0 Build 192)  --><defs
     id="defs6"><style
       id="style1">
      .st0 {
        fill-opacity: .5;
      }

      .st0, .st1, .st2, .st3, .st4, .st5, .st6, .st7 {
        fill: #fff;
      }

      .st8 {
        fill: #133c9a;
      }

      .st2, .st9 {
        display: none;
      }

      .st3 {
        fill-opacity: .2;
      }

      .st4 {
        fill-opacity: .9;
      }

      .st10 {
        fill: #3370ff;
      }

      .st11 {
        fill: url(#_未命名的渐变_3);
      }

      .st12 {
        fill: url(#_未命名的渐变);
      }

      .st5 {
        fill-opacity: .3;
      }

      .st6 {
        fill-opacity: 0;
      }

      .st7 {
        fill-opacity: .7;
      }

      .st13 {
        fill: #00d6b9;
      }

      .st14 {
        fill: url(#_未命名的渐变_2);
      }
    </style><radialGradient
       id="_未命名的渐变"
       data-name="未命名的渐变"
       cx="123.9"
       cy="-40.2"
       fx="123.9"
       fy="-40.2"
       r="59.4"
       gradientTransform="translate(-26.8 25.5) scale(.6 -.7)"
       gradientUnits="userSpaceOnUse"><stop
         offset="0"
         stop-color="#db202e"
         id="stop1" /><stop
         offset="1"
         stop-color="#e01b24"
         id="stop2" /></radialGradient><radialGradient
       id="_未命名的渐变_2"
       data-name="未命名的渐变 2"
       cx="67.6"
       cy="26.8"
       fx="67.6"
       fy="26.8"
       r="105.2"
       gradientTransform="translate(-26.6 25.3) scale(.6 -.7)"
       gradientUnits="userSpaceOnUse"><stop
         offset="0"
         stop-color="#ffb648"
         id="stop3" /><stop
         offset="1"
         stop-color="#ff7800"
         stop-opacity="0"
         id="stop4" /></radialGradient><radialGradient
       id="_未命名的渐变_3"
       data-name="未命名的渐变 3"
       cx="61.7"
       cy="18.6"
       fx="61.7"
       fy="18.6"
       r="68"
       gradientTransform="translate(-26.8 25.8) scale(.6 -.7)"
       gradientUnits="userSpaceOnUse"><stop
         offset="0"
         stop-color="#c64600"
         id="stop5" /><stop
         offset="1"
         stop-color="#a51d2d"
         id="stop6" /></radialGradient></defs><path
     class="st1"
     d="M47.5,64.1H13.8c-7.6,0-13.8-6.3-13.8-13.8V13.7C0,6.2,6.2,0,13.7,0h36.6c7.5,0,13.7,6.2,13.7,13.7v36.6c0,7.5-6.2,13.7-13.7,13.7h-2.9.1Z"
     id="path6"
     style="fill:#455e9c;fill-opacity:1" /><g
     id="g38"
     transform="matrix(3.9883041,0,0,4.0116959,0.14035088,0.02339204)"><path
       style="fill:#a2afce"
       d="m 5.6503906,3.7011719 c -0.415678,0.012388 -0.809815,0.1861122 -1.0996094,0.484375 L 1.5234375,7.2148438 C -0.04719413,8.7228582 2.2771418,11.047195 3.7851562,9.4765625 L 6.8144531,6.4492188 C 7.8610187,5.431914 5.6503906,3.7011719 5.6503906,3.7011719 Z M 2.5,8 C 2.7761423,8 3,8.2238577 3,8.5 3,8.7761422 2.7761423,9 2.5,9 2.2238576,9 2,8.7761422 2,8.5 2,8.2238577 2.2238576,8 2.5,8 Z"
       id="path1-0" /><path
       style="fill:#ffffff"
       d="M 8,1 A 3,3 0 0 0 5,4 3,3 0 0 0 8,7 3,3 0 0 0 10.824219,5 H 8 L 7.5,4 8,3 h 2.826172 A 3,3 0 0 0 8,1 Z"
       id="path2-6" /><path
       style="fill:#ffffff"
       d="m 5,8 v 1 h 1 v 4 H 7 V 9 H 8 V 8 H 7 6 Z m 6.205078,0 1.101563,2.5 -1.101563,2.5 H 12 L 12.705078,11.400391 13.408203,13 h 0.796875 L 13.101562,10.5 14.205078,8 H 13.408203 L 12.705078,9.5976562 12,8 Z M 8,10 v 1 1 1 1 1 h 3 V 14 H 9 v -1 h 2 V 12 H 9 v -1 h 2 v -1 z"
       id="path3-2" /></g></svg>

<svg xmlns="http://www.w3.org/2000/svg" width="16" height="16" version="1">
 <circle style="fill:#455e9c" class="cls-1" cx="8" cy="8" r="8"/>
 <path style="fill:#a2afce" d="M 5.6503906 3.7011719 C 5.2347126 3.7135599 4.8405756 3.8872841 4.5507812 4.1855469 L 1.5234375 7.2148438 C -0.04719413 8.7228582 2.2771418 11.047195 3.7851562 9.4765625 L 6.8144531 6.4492188 C 7.8610187 5.431914 5.6503906 3.7011719 5.6503906 3.7011719 z M 2.5 8 C 2.7761423 8 3 8.2238577 3 8.5 C 3 8.7761422 2.7761423 9 2.5 9 C 2.2238576 9 2 8.7761422 2 8.5 C 2 8.2238577 2.2238576 8 2.5 8 z"/>
 <path style="fill:#ffffff" d="M 8,1 A 3,3 0 0 0 5,4 3,3 0 0 0 8,7 3,3 0 0 0 10.824219,5 H 8 L 7.5,4 8,3 h 2.826172 A 3,3 0 0 0 8,1 Z"/>
 <path style="fill:#ffffff" d="M 5 8 L 5 9 L 6 9 L 6 13 L 7 13 L 7 9 L 8 9 L 8 8 L 7 8 L 6 8 L 5 8 z M 11.205078 8 L 12.306641 10.5 L 11.205078 13 L 12 13 L 12.705078 11.400391 L 13.408203 13 L 14.205078 13 L 13.101562 10.5 L 14.205078 8 L 13.408203 8 L 12.705078 9.5976562 L 12 8 L 11.205078 8 z M 8 10 L 8 11 L 8 12 L 8 13 L 8 14 L 8 15 L 11 15 L 11 14 L 9 14 L 9 13 L 11 13 L 11 12 L 9 12 L 9 11 L 11 11 L 11 10 L 8 10 z"/>
</svg>
